X:1
T:James Gibb editions
T:Proud Maisie - Parry
T:#
%%score 1 { ( 2 3 ) | ( 4 5 ) }
L:1/8
Q:1/4=60
M:2/4
K:F
V:1 treble nm="Solo"
V:2 treble nm="Midi_1"
V:3 treble 
V:4 bass 
V:5 bass 
V:1
"^allegretto""^Walter Scott\n(1771-1832)""^Charles Hubert Hastings Parry\n(1848-1918)""^Proud Maisie""^From \"English Lyrics\" Set 5 no. 2" z | %1
w: |
 z4 | z4 | z4 | z4 | z4 | z2 z!mf! G | AG/F/!<(! A>d!<)! | c4 | A2 (G/F/) (A/d/) | (c>A) c2 | %11
w: |||||Proud|Mai- sie is in the|wood,|Walk- ing * so *|ear\- * ly;|
 z!p! F BF | DF/>G/ F2 |!mf!!<(! F d2 !>!f!<)! | (c>d B/c/4B/4A/G/ | AF z2 | z4 | z4 |!f! c2 A>G | %19
w: Sweet Ro- bin|sits on the bush,|Sing- ing so|rare\- * * * * * *|* ly.|||"Tell me, thou|
 A/d/ c3 | !>!c2 A>G | A/d/ c2 z | z4 | z4 | z!p! A AA | d>A A2 | d2 A>G | F/E/ D2 z |!f! c2 A>G | %29
w: bon- ny bird,|When shall I|mar- ry me~?"|||"When six braw|gen- tle- men|Kirk- ward shall|car- ry ye."|"Who makes the|
 A/d/ c3 | c A2 G | A/d/) c2 z | z4 | z4 | z!p! B B_G/_A/ | B F2 B | B>B B2 | B F2 z | z4 | z4 | %40
w: bri- dal bed,|Bir- die, say|tru\- * ly~?"|||"The grey- head- ed|sex- ton That|delves the grave|du- ly.|||
 z2 z!p!"^meno mosso"[Q:1/4=54] A | A2 DE | F>G A2- |[Q:1/4=54][Q:1/4=54] AA DE | %44
w: The|glow- worm o'er|grave and stone|* Shall light thee|
 (F/G/)!<(! A2 A!<)! |!f! d2!p! DE | F>G A2 |!mf!"^allargando"[Q:1/4=50] d D2!f! f | %48
w: stea\- * dy; The|owl from the|stee- ple sing|"Wel- come, proud|
[Q:1/4=50][Q:1/4=50] (c>d B/c/4B/4 A/G/ | A)F z2 | z4 | z4 | z4 | z4 | z4 |] %55
w: la\- * * * * * *|* dy."||||||
V:2
!mf! .f | c>d B/c/4B/4A/G/ | A (F2 E) | D2 .[F,D].[A,^CE] | !tenuto![A,DF]2 .[B,DF].[B,EG] | %5
 ([CFA]/c/) !tenuto!c2 [CEG] | ([CFA]/c/) !tenuto!c2!mf! [CEG] | [CFA]2 z2 | z ([EG] [FA])[EGc]- | %9
 [FAc]2 z2 | z [EA]- [FA]c | [DFd]2 z2 | z!p!!<(! [A,CF]- [B,DF][_EAc]!<)! | [DBd]2 z !>![FBd] | %14
 z ([CFc] [DFB]).[CEG] | z!f! .d !>!c>d | (B/c/4B/4A/G/) (B>c) | (A/B/4A/4G/F/) (A/B/4A/4G/F/) | %18
 ([CA][Fc]) z2 |!f! z ([EG] [FA])[EGc]- | [FAc]2 z2 | z ([EG] [FA])!f!.[FGf] | %22
 (c>d) (B/c/4B/4A/G/ | A) (F2 E) | [A,D]2!p! .[A,D].[A,^CE] | [A,DF]2 .[A,DF].[A,^CE] | %26
 !tenuto![A,D]2 .[F,A,D].[A,^CE] | [A,DF]2!<(! .[B,DF].[B,EG]!<)! |!f! [A,FA]2 z2 | %29
 z ([EG] [FA])[EGc]- | [FAc] z z2 | z ([EG] [FA])!>![FGf] | (c>d) (B/c/4B/4A/G/ | %33
"^dim." A) (F2 _E) |[K:bass]!p! ([F,B,D]2 [_G,B,_E]2) | ([F,B,D]2 [_A,F])[_G,_E] | %36
 [F,B,D]2 CB,/C/ | [F,D]3[K:treble]!mf! !>!f |!mf! (!>!c>d) B2 | (!>!A>B) G2 |"^dim." (!>!A>B G)E | %41
 [A,D]2 .[A,D].[G,CE] | !tenuto![A,CF]2 [A,CA][^CA] | [A,D]2 [A,D][CE] | %44
!<(! [A,F]2 .[A,CA].[A,^CA]!<)! |!f! [A,D]2!p! .[A,D].[CE] | %46
"^cresc." !tenuto![A,CF]2 .[A,CA].[A,^CA] | [A,DA]2 z [FGf] | z!>(! ([CF] [DFB])[CEG]!>)! | %49
 z!p! F2 E | [F,D]3 E | F2 DE | F2 DE | F2 z .f | !tenuto!c4 |] %55
V:3
 z | z (F2 E) | FA, =B,^C | x4 | x4 | x4 | x4 | x4 | x4 | x4 | z x2 [FA]/[_EG]/ | z4 | x4 | x4 | %14
 x4 | z2 F2- | F2 E2 | E2 D2 | x4 | x4 | x4 | x4 | z F2 E | F(A, B,)[G,^C] | x4 | x4 | x4 | x4 | %28
 x4 | x4 | x4 | x4 | z F2 E | F(A, [G,B,][A,C]) |[K:bass] x4 | x4 | x2 _G,2 | x2 x[K:treble] x | %38
 z (F2 E) | z (D2 ^C) | z [A,D] [B,D][G,^C] | x4 | x4 | x4 | x4 | x4 | x4 | x4 | x4 | z A, B,C | %50
 CB,- [G,B,][G,B,] | ([B,D]"^dim."[A,C]) [F,B,][B,D]- | ([B,D][A,C]) [F,B,][B,D]- | %53
 ([B,D][A,C]) z x | x4 |] %55
V:4
 z | z [A,C] [G,D]C- |"^dim." [F,C]F,, G,,[A,,G,] | [B,,F,]2 B,,A,, | D,2"^poco cresc." D,C, | %5
 [F,,C,A,]2 z [C,G,] | [F,A,]2 z C, | F,,2 z2 | z C- [F,C](C, | F,,2 z2 | z (C F,)!>(!F,, | %11
 [B,,F,]2!>)! z2 | z F, B,,)F,,- | [B,,,F,,]2 z [G,B,] | z (A, G,)C, | !>![F,,C,]2 .[A,C].[C,A,] | %16
 [F,,C,G,]2 .[G,C].[C,G,] | .[F,,C,].[F,A,] F,G, | ([F,,C,][C,A,]) z2 | z C- [F,C]C,- | F,,2 z2 | %21
 z C- [F,C][B,,F,D] | z ([A,C] [G,D])C |"^dim." F,F,, G,,A,, | [D,F,]2 [D,F,]A,, | F,,2 F,,A,, | %26
 [D,F,]2 D,A,, | D,,2 D,C, | [F,,C,]2 z2 | z C- [F,C](C, | F,,2) z2 | z C- [F,C][B,,F,D] | %32
 z ([A,C] [G,D]).C | F,2 F,,2 |!p! B,,4 | (B,,2 _E,,2) | B,,4 | (B,,,2 B,,)"^dim." z | %38
 z ([A,C] [G,D]C) | z [F,A,] ([E,B,]A,) | z F,, G,,A,, | [D,F,]2 [D,F,]C, | F,,2 F,,[A,,G,] | %43
 [D,F,]2 [D,F,]C, | F,,2 F,,[A,,G,] | [D,F,]2 [D,F,][C,G,] | F,,2 F,,[A,,G,] | [D,F,]2 z [B,,F,D] | %48
 z (A,, G,,)C, | z (F,, G,,)A,, | (B,,>A,, G,,).C, | (F,,>C,) (!>!B,,/C,/4B,,/4).A,,/.G,,/ | %52
 (F,,>C,) (!>!B,,/C,/4B,,/4).A,,/.G,,/ | z2!p! [C,A,]2- | [C,A,]4 |] %55
V:5
 x | x4 | x4 | x4 | x4 | x4 | x4 | x4 | x4 | x4 | x4 | x4 | x4 | x4 | x4 | x4 | x4 | x2 B,,2 | x4 | %19
 x4 | x4 | x4 | x4 | x4 | x4 | x4 | x4 | x4 | x4 | x4 | x4 | x4 | x4 | x4 | (B,,,2 _E,,2) | x4 | %36
 (B,,,2 _E,,2) | x4 | x4 | x4 | x4 | x4 | x4 | x4 | x4 | x4 | x4 | x4 | x4 | x4 | x4 | x4 | x4 | %53
 F,,4- | F,,4 |] %55

